svgs/sharp-light/down-to-line.svg

<svg xmlns="http://www.w3.org/2000/svg" viewBox="0 0 384 512"><!--! Font Awesome Pro 6.6.0 by @fontawesome - https://fontawesome.com License - https://fontawesome.com/license (Commercial License) Copyright 2024 Fonticons, Inc. --><path d="M16 448L0 448l0 32 16 0 352 0 16 0 0-32-16 0L16 448zM240 176l0 32 32 0 48 0 0 17.7L192 340.9 64 225.7 64 208l48 0 32 0 0-32 0-112 96 0 0 112zm112 0l-32 0-16 0-32 0 0-32 0-80 0-32-32 0-96 0-32 0 0 32 0 80 0 32-32 0-16 0-32 0 0 32 0 32L192 384 352 240l0-32 0-32z"/></svg>

<svg xmlns="http://www.w3.org/2000/svg" viewBox="0 0 384 512"><!--! Font Awesome Pro 6.4.2 by @fontawesome - https://fontawesome.com License - https://fontawesome.com/license (Commercial License) Copyright 2023 Fonticons, Inc. --><path d="M16 448H0v32H16 368h16V448H368 16zM240 176v32h32 48v17.7L192 340.9 64 225.7V208h48 32V176 64h96V176zm112 0H320 304 272V144 64 32H240 144 112V64v80 32H80 64 32v32 32L192 384 352 240V208 176z"/></svg>
